src/24/actions/paint-unknown.svg

<svg xmlns="http://www.w3.org/2000/svg" width="24" height="24" viewBox="0 0 24 24">
 <defs>
  <style id="current-color-scheme" type="text/css">
   .ColorScheme-Text { color:#565656; } .ColorScheme-Highlight { color:#5294e2; }
  </style>
 </defs>
 <path style="fill:currentColor" class="ColorScheme-Text" d="M 12.28125 3 C 10.264641 3.0000166 8.9761308 3.5488567 7.75 4.3652344 C 7.0078932 4.8519526 6.4511275 5.4497644 6.0800781 6.15625 C 5.6928749 6.8470605 5.5 8.0873106 5.5 9.0292969 L 10.484375 9.0292969 L 10.460938 8.2519531 C 10.485084 6.6741147 11.345529 6.4863448 11.845703 6.4863281 C 12.297347 6.4863448 12.683177 6.6101357 13.005859 6.8613281 C 13.344613 7.1125373 13.515625 7.4433778 13.515625 7.8515625 C 13.515625 8.4324727 13.042097 8.711937 12.449219 9.2167969 C 11.498192 10.026758 10.683797 10.649499 10.490234 10.837891 C 9.7804287 11.512993 8.8660495 12.108612 9.1425781 14.261719 L 14.183594 14.261719 C 14.183594 13.382524 14.185102 12.855843 14.943359 12.369141 L 17.242188 10.511719 C 18.081036 9.805225 18.5 8.8398467 18.5 7.6152344 C 18.5 6.1551547 17.814682 4.9943789 16.443359 4.1308594 C 15.233458 3.377282 13.846055 3.0000166 12.28125 3 z M 9.2109375 16.09375 L 9.2109375 21 L 14.148438 21 L 14.148438 16.09375 L 9.2109375 16.09375 z"/>
</svg>

<svg xmlns="http://www.w3.org/2000/svg" width="24" height="24"><defs><style id="current-color-scheme" type="text/css"></style></defs><path d="M12.281 3c-2.016 0-3.305.549-4.531 1.365-.742.487-1.299 1.085-1.67 1.791-.387.691-.58 1.931-.58 2.873h4.984l-.023-.777c.024-1.578.885-1.766 1.385-1.766.451 0 .837.124 1.16.375.339.252.51.582.51.99 0 .581-.474.86-1.067 1.366-.95.81-1.765 1.432-1.959 1.62-.71.676-1.624 1.272-1.347 3.425h5.04c0-.88.002-1.406.76-1.893l2.3-1.857C18.08 9.805 18.5 8.84 18.5 7.615c0-1.46-.685-2.62-2.057-3.484C15.233 3.377 13.846 3 12.281 3zm-3.07 13.094V21h4.937v-4.906H9.211z" fill="currentColor" color="#565656"/></svg>
